!!!!SEGMENT: pl-wumfc--r282--001-009_paderewski-ignacy-jan--exercises-1-exercise-9.krn
!!!cenid: 18xx:3168
!!!COM: Paderewski, Ignacy Jan
!!!COM-rismID: pe30029943
!!!CDT: 1860/11/18-1941/06/29
!!!CNT: Polish
!!!GTL: [Exercises 1]
!!!OTL: [Exercise] 9
!!!OMV: 009
!!!PDT:
!!!AGN:
!!!SMS-siglum: PL-Wumfc
!!!SMS-shelfmark: R282
!!!SMS-shelfwork: 001-009 G
!!!SMS-variant:
!!!SMS-altvar:
!!!NIFC-rismSourceID: 1001158933
!!!NIFC-islandoraID: pl-wumfc:419
!!!URL-pdf-islandora: https://repozytorium.nifc.pl/islandora/object/pl-wumfc%3A419/datastream/PDF/view
!!!URL-scan: https://polish.musicsources.pl/pl/lokalizacje/galeria/rekopisy/4702 @EN{Scan on Polish Music Sources Website} @PL{Skany w portalu Dziedzictwo Muzyki Polskiej w otwartym dostępie}
!!!ONB-nifc: UWAGA: pierwsza grupa ćwiczeń na skanach 0004-0007
!!!AIN: 1 empty
!!!key:
**kern	**kern
*part1	*part1
*staff2	*staff1
*Iempty	*Ipiano
*	*I"Piano
*clefF4	*clefG2
*k[f#]	*k[f#]
*G:	*G:
*M4/4	*M4/4
*>[A,A,B]	*>[A,A,B]
=1	=1
*>A	*>A
!	!LO:TX:a:Bi:t=C.f.
4G\	4g/
4F#\	4a/
4G\	4b/
4D\	4dd/
=2	=2
4E\	4g/
4F#\	4f#/
4G\	2e/
4A\	.
=3	=3
1B;>	1d;>
=4	=4
4c\	4e/
4B\	4f#/
4e\	4g/
4c\	4a/
=5	=5
4d\	4b\
4F#\	4a/
2G;>\	2g;>/
=6:|!	=6:|!
*>B	*
4E\	4b/
4D\	4b/
4C\	4a/
4BB\	4b/
=7	=7
4AA\	4cc/
4BB\	4b\
!!LO:LB:g=original
2C;>\	2a;>/
=8	=8
4C\	4e/
4BB\	4f#/
4E\	4g/
4C\	4a/
=9	=9
4D\	4b/
4F#\	4a/
2G;>\	2g;>/
==	==
*-	*-
!!!system-decoration: [(s1,s2)]
!!!RDF**kern: > = above
!!!RDF**kern: < = below
!!!RDF**kern: | = vertical stroke
!!!RDF**kern: N = linked
!!!RDF**kern: i = editorial accidental
!!!RDF**kern: l = terminal long
!!!ENC: Berenika Jozajtis
!!!END: 2021-11-11
!!!EED: Wojciech Jakubiak-Danek
!!!EEV: 2021-11-15
!!!YEC: Copyright 2022 Narodowy Instytut Fryderyka Chopina (https://polishscores.org)
!!!YEM: Licence CC BY 4.0 (https://creativecommons.org/licenses/by/4.0)
